X:1
T:William Billings
T:Mendom
%%score [ 1 2 3 4 ]
L:1/8
M:4/4
K:C
V:1 treble nm="Soprano" snm="S"
V:2 alto nm="Alto" snm="A"
V:3 treble-8 nm="Tenor" snm="T"
V:4 bass nm="Bass" snm="B"
V:1
 z4 B2 c2 | B2 (c>e) (dc) B2 | A4 G4 | A2 c2 B2 A2 | ^G4 A2 c2 | B2 (c>e) (dc) B2 | A4 A4 | %7
 B2 A2 A2 ^G2 | A8 | z4 A2 B2 | (cB)(ce) (dc B2) | c3 B A2 ^G2 | A2 (ec) (dB)(cB/A/) | ^G4 c2 A2 | %14
 B2 G2 (c>B) A2 | G4 B4 | A2 c2 (BA) ^G2 | A8 | z4 A2 B2 | (cB)(ce) (dc B2) | c3 B A2 ^G2 | %21
 A2 (ec) (dB)(cB/A/) | ^G4 c2 A2 | B2 G2 (c>B) A2 | G4 B4 | A2 c2 (BA) ^G2 | A8 |] %27
V:2
 z4 E2 E2 | E2 E2 F2 E2 | E4 E4 | E2 G2 G2 E2 | E4 E2 E2 | E2 F2 E2 E2 | E4 E4 | G2 (AG) F2 E2 | %8
 E8 | z4 E2 G2 | G2 E2 A2 ^G2 | A3 E E2 E2 | E2 E2 F2 E2 | E4 E2 C2 | D2 E2 E2 E2 | E4 G4 | %16
 E2 F2 F2 E2 | E8 | z4 E2 G2 | G2 E2 A2 ^G2 | A3 E E2 E2 | E2 E2 F2 E2 | E4 E2 C2 | D2 E2 E2 E2 | %24
 E4 G4 | E2 F2 F2 E2 | E8 |] %27
V:3
 z4 A2 A2 | G2 E2 A2 ^G2 | A4 B4 | c2 e2 d2 c2 | B4 A2 A2 | G2 E2 A2 ^G2 | A4 c4 | %7
w: My Re-|deem- er let me|be quite|hap- py at thy|feet still to|know my self and|thee be|
 e2 (fe) (dc) B2 | A8 | z4 c2 d2 | e2 e2 f2 (ed) | e3 d c2 B2 | c2 e2 d2 c2 | B4 c2 c2 | %14
w: this my * bitt- * er|sweet|Look up-|on my in- fant *|state and with a|Fa- ther's yearn- ings|bless don't thy|
 B2 B2 (A>B)(cA) | B4 e4 | c2 A2 (dc) B2 | A8 | z4 c2 d2 | e2 e2 f2 (ed) | e3 d c2 B2 | %21
w: ran- som'd Child * for *|get nor|leave me in * dis-|tress|Look up-|on my in- fant *|state and with a|
 c2 e2 d2 c2 | B4 c2 c2 | B2 B2 (A>B)(cA) | B4 e4 | c2 A2 (dc) B2 | A8 |] %27
w: Fath- er's yearn- ings|bless don't ty|ran- som'd Child * for *|get nor|leave me in * dis-|tress|
V:4
 z4 A,,2 A,,2 | E,2 C,2 D,2 E,2 | A,,4 E,4 | C,2 [C,C]2 G,2 A,2 | E,4 A,,2 A,,2 | E,2 C,2 D,2 E,2 | %6
 A,,4 A,4 | E,2 (D,C,) D,2 E,2 | A,,8 | z4 A,2 G,2 | E,2 C,2 D,2 E,2 | A,3 ^G, A,2 E,2 | %12
 A,2 C2 B,2 A,2 | E,4 A,2 A,2 | G,2 E,2 A,2 A,,2 | E,4 E,4 | (A,>G,)(F,>E,) D,2 E,2 | A,,8 | %18
 z4 A,2 G,2 | E,2 C,2 D,2 E,2 | A,3 ^G, A,2 E,2 | A,2 C2 B,2 A,2 | E,4 A,2 A,2 | G,2 E,2 A,2 A,,2 | %24
 E,4 E,4 | (A,>G,)(F,>E,) D,2 E,2 | A,,8 |] %27

